dist/img/icons/experience/react.svg

<svg width="33" height="33" viewBox="0 0 33 33" fill="none" xmlns="http://www.w3.org/2000/svg">
<path d="M19.5662 16.5055C19.5662 17.3207 19.2425 18.1025 18.6662 18.679C18.09 19.2555 17.3083 19.5796 16.4931 19.58C15.6777 19.58 14.8957 19.2561 14.3191 18.6795C13.7425 18.1029 13.4186 17.3209 13.4186 16.5055C13.4186 15.6903 13.7424 14.9085 14.3186 14.332C14.8949 13.7554 15.6766 13.4314 16.4918 13.431C17.3072 13.431 18.0892 13.7549 18.6657 14.3315C19.2423 14.9081 19.5662 15.6901 19.5662 16.5055ZM23.2073 1.80674C21.3565 1.80674 18.9351 3.12674 16.4862 5.41199C14.0387 3.13911 11.616 1.83424 9.76663 1.83424C9.20288 1.83424 8.69 1.96211 8.24588 2.21649C6.35525 3.30686 5.93175 6.70449 6.908 10.9684C2.7225 12.2609 0 14.3275 0 16.5055C0 18.6917 2.73625 20.7639 6.93413 22.0467C5.96613 26.3271 6.39788 29.7302 8.29263 30.8192C8.73263 31.0764 9.24137 31.1974 9.80787 31.1974C11.6572 31.1974 14.08 29.8774 16.5289 27.5894C18.9764 29.8636 21.3991 31.1685 23.2485 31.1685C23.8123 31.1685 24.3251 31.0447 24.7692 30.7904C26.6585 29.7014 27.0834 26.3037 26.1071 22.0385C30.2775 20.757 33 18.6862 33 16.5055C33 14.3192 30.2638 12.2471 26.0659 10.9615C27.0339 6.68524 26.6021 3.27936 24.7074 2.18899C24.2493 1.9314 23.7327 1.79952 23.2073 1.80674ZM23.2004 3.30549V3.31374C23.5097 3.31374 23.7586 3.37424 23.9676 3.48836C24.8834 4.01361 25.2807 6.01149 24.9714 8.58136C24.8971 9.21386 24.7761 9.88074 24.6276 10.5614C23.2216 10.2212 21.7944 9.97586 20.3555 9.82711C19.4986 8.64463 18.5638 7.52059 17.5574 6.46249C19.7464 4.42749 21.802 3.31099 23.2018 3.30686L23.2004 3.30549ZM9.76663 3.33299C11.1581 3.33299 13.2234 4.44399 15.4179 6.46799C14.4746 7.45799 13.5341 8.58136 12.6404 9.82574C11.1982 9.97275 9.76791 10.2199 8.36 10.5655C8.21238 9.92062 8.09583 9.26904 8.01075 8.61299C7.6945 6.04449 8.085 4.04799 8.9925 3.51586C9.25375 3.39211 9.5425 3.33986 9.76663 3.33299ZM16.4794 7.52674C17.105 8.17024 17.7306 8.89074 18.3494 9.67724C17.7444 9.64974 17.1256 9.63049 16.5 9.63049C15.8675 9.63049 15.2419 9.64424 14.63 9.67724C15.235 8.89074 15.8606 8.17161 16.4794 7.52674ZM16.5 11.1375C17.5175 11.1375 18.5309 11.1842 19.5277 11.2654C20.086 12.0656 20.6305 12.9195 21.1544 13.8229C21.6659 14.7029 22.1306 15.5966 22.5541 16.4986C22.1306 17.3992 21.6659 18.2999 21.1613 19.1799C20.6388 20.0874 20.0984 20.9509 19.5388 21.7511C17.5205 21.9277 15.4909 21.93 13.4723 21.758C12.895 20.9283 12.3523 20.0751 11.8456 19.2005C11.3341 18.3205 10.8694 17.4267 10.4459 16.5247C10.8708 15.6093 11.3355 14.7128 11.8387 13.838C12.3612 12.9305 12.9016 12.0697 13.4612 11.2695C14.4717 11.1802 15.4856 11.1352 16.5 11.1347V11.1375ZM11.5019 11.4867C11.1719 12.0051 10.8419 12.5359 10.5339 13.0817C10.2245 13.618 9.93575 14.157 9.66075 14.696C9.29638 13.794 8.987 12.8947 8.73125 12.0189C9.61125 11.8126 10.5394 11.6284 11.5019 11.4867ZM21.4844 11.4867C22.44 11.6284 23.3613 11.803 24.2426 12.0189C23.9951 12.8879 23.6858 13.7816 23.3351 14.6767C22.7741 13.5822 22.1568 12.5175 21.4858 11.4867H21.4844ZM25.696 12.4149C26.3615 12.6211 26.994 12.8507 27.5866 13.0996C29.9681 14.1171 31.5081 15.4481 31.5081 16.5041C31.5013 17.5601 29.9613 18.8966 27.5798 19.9072C27.0023 20.1547 26.3697 20.3775 25.7166 20.5851C25.3036 19.1873 24.7984 17.8185 24.2041 16.4876C24.8229 15.0892 25.3179 13.7239 25.696 12.4121V12.4149ZM7.27788 12.4204C7.66013 13.7404 8.16475 15.1112 8.79038 16.5179C8.20044 17.8408 7.70153 19.2025 7.29713 20.5934C6.63163 20.3871 5.99913 20.1561 5.41338 19.9059C3.03188 18.8925 1.49188 17.5601 1.49188 16.5041C1.49188 15.4481 3.03188 14.1089 5.41338 13.0996C5.99088 12.8521 6.62338 12.6294 7.27788 12.4204ZM23.3351 18.3054C23.6995 19.2087 24.0089 20.1094 24.2646 20.9839C23.3846 21.1997 22.4551 21.3826 21.4926 21.5201C22.1628 20.4814 22.7769 19.4083 23.3351 18.3054ZM9.66075 18.3329C9.93575 18.8719 10.2245 19.4095 10.5407 19.9485C10.857 20.4847 11.1801 21.01 11.5101 21.5201C10.583 21.386 9.66258 21.2089 8.75187 20.9894C8.99937 20.1231 9.31013 19.2266 9.65938 18.3315L9.66075 18.3329ZM24.64 22.44C24.794 23.1179 24.915 23.771 24.9892 24.3966C25.3055 26.9651 24.915 28.9616 24.0075 29.4951C23.8054 29.6189 23.5427 29.6711 23.2334 29.6711C21.8419 29.6711 19.7766 28.5615 17.5821 26.5361C18.5254 25.5461 19.4659 24.4241 20.3596 23.1811C21.8818 23.0189 23.3214 22.77 24.64 22.44ZM8.37375 22.4537C9.69375 22.7755 11.132 23.0244 12.6459 23.1852C13.5534 24.4296 14.4953 25.5599 15.444 26.5485C13.2509 28.5876 11.1925 29.7041 9.79275 29.7041C9.52832 29.7062 9.26735 29.6439 9.03237 29.5226C8.11662 29.0001 7.71925 27.0009 8.02863 24.431C8.10288 23.7985 8.22525 23.133 8.37375 22.4537ZM14.6437 23.3337C15.2487 23.3612 15.8675 23.3805 16.4931 23.3805C17.1256 23.3805 17.7512 23.3667 18.3631 23.3337C17.7581 24.1202 17.1325 24.8394 16.5138 25.4856C15.8881 24.8394 15.2625 24.1202 14.6437 23.3337Z" fill="#D6BD96"/>
</svg>

<svg width="33" height="33" fill="none" xmlns="http://www.w3.org/2000/svg"><path d="M19.566 16.506a3.074 3.074 0 1 1-6.148 0 3.074 3.074 0 0 1 6.148 0Zm3.641-14.7c-1.85 0-4.272 1.32-6.72 3.606-2.448-2.273-4.871-3.578-6.72-3.578a3.02 3.02 0 0 0-1.521.382c-1.89 1.09-2.314 4.488-1.338 8.752C2.722 12.261 0 14.328 0 16.506c0 2.186 2.736 4.258 6.934 5.54-.968 4.281-.536 7.684 1.359 8.773.44.257.948.378 1.515.378 1.85 0 4.272-1.32 6.72-3.608 2.448 2.275 4.871 3.58 6.72 3.58.564 0 1.077-.124 1.521-.379 1.89-1.089 2.314-4.486 1.338-8.752 4.17-1.28 6.893-3.352 6.893-5.532 0-2.187-2.736-4.259-6.934-5.545.968-4.276.536-7.682-1.359-8.772a2.975 2.975 0 0 0-1.5-.382Zm-.007 1.5v.008c.31 0 .559.06.768.174.915.526 1.313 2.523 1.003 5.093-.074.633-.195 1.3-.343 1.98a32.28 32.28 0 0 0-4.273-.734 32.86 32.86 0 0 0-2.798-3.365c2.19-2.035 4.245-3.151 5.645-3.155l-.002-.002Zm-13.433.027c1.391 0 3.456 1.111 5.65 3.135a31.604 31.604 0 0 0-2.777 3.358 31.248 31.248 0 0 0-4.28.74 20.655 20.655 0 0 1-.35-1.953c-.316-2.569.075-4.565.982-5.097.262-.124.55-.176.775-.183Zm6.712 4.194a27.353 27.353 0 0 1 1.87 2.15A40.73 40.73 0 0 0 16.5 9.63c-.633 0-1.258.014-1.87.047a26.085 26.085 0 0 1 1.85-2.15Zm.021 3.61c1.017 0 2.03.047 3.028.128a35.895 35.895 0 0 1 3.026 5.234c-.423.9-.888 1.8-1.393 2.68a34.768 34.768 0 0 1-1.622 2.572 35.256 35.256 0 0 1-6.067.007 36.616 36.616 0 0 1-1.626-2.557 34.49 34.49 0 0 1-1.4-2.676c.425-.916.89-1.812 1.393-2.687a34.703 34.703 0 0 1 1.622-2.568c1.01-.09 2.025-.135 3.039-.135v.002Zm-4.998.35c-.33.518-.66 1.049-.968 1.595-.31.536-.598 1.075-.873 1.614a28.483 28.483 0 0 1-.93-2.677c.88-.206 1.808-.39 2.77-.532Zm9.982 0c.956.141 1.877.316 2.759.532a29.475 29.475 0 0 1-.908 2.658 35.677 35.677 0 0 0-1.85-3.19Zm4.212.928c.665.206 1.298.436 1.89.685 2.382 1.017 3.922 2.348 3.922 3.404-.007 1.056-1.547 2.393-3.928 3.403-.578.248-1.21.47-1.863.678a32.942 32.942 0 0 0-1.513-4.097 32.001 32.001 0 0 0 1.492-4.076v.003Zm-18.418.005a32.08 32.08 0 0 0 1.512 4.098 31.816 31.816 0 0 0-1.493 4.075 19.548 19.548 0 0 1-1.884-.687c-2.381-1.014-3.921-2.346-3.921-3.402s1.54-2.395 3.921-3.404a21.16 21.16 0 0 1 1.865-.68Zm16.057 5.885c.364.904.674 1.804.93 2.679-.88.216-1.81.399-2.772.536a35.474 35.474 0 0 0 1.842-3.215Zm-13.674.028c.275.539.564 1.077.88 1.616.316.536.64 1.061.97 1.571a30.259 30.259 0 0 1-2.76-.53c.248-.867.56-1.763.908-2.659l.002.002ZM24.64 22.44c.154.678.275 1.331.35 1.957.316 2.568-.075 4.565-.982 5.098-.203.124-.465.176-.775.176-1.391 0-3.456-1.11-5.65-3.135a31.702 31.702 0 0 0 2.777-3.355 31.45 31.45 0 0 0 4.28-.741Zm-16.266.014c1.32.322 2.758.57 4.272.731a32.683 32.683 0 0 0 2.798 3.364c-2.193 2.039-4.252 3.155-5.651 3.155a1.63 1.63 0 0 1-.76-.181C8.116 29 7.718 27 8.028 24.43c.074-.633.196-1.298.345-1.977Zm6.27.88c.605.027 1.223.047 1.85.047.632 0 1.257-.014 1.87-.047a26.354 26.354 0 0 1-1.85 2.152 27.861 27.861 0 0 1-1.87-2.152Z" fill="#D6BD96"/></svg>
